Origami/16x16/apps/jango.svg

<svg width="16" height="16" version="1" xmlns="http://www.w3.org/2000/svg">
 <rect transform="matrix(0,-1,-1,0,0,0)" x="-16" y="-16" width="16" height="16" rx=".8" ry=".8" style="fill:#19416f"/>
 <path d="m8.5 1a1.5 1.5 0 0 0 -1.5 1.5 1.5 1.5 0 0 0 1.5 1.5 1.5 1.5 0 0 0 1.5 -1.5 1.5 1.5 0 0 0 -1.5 -1.5zm0 3h-0.5-1c-0.554 0-1 0.446-1 1s0.446 1 1 1h1v5.373047c0 0.376167-0.00292 0.648832-0.021484 0.871094a1.5 1.5 0 0 0 -1.478516 -1.244141 1.5 1.5 0 0 0 -1.5 1.5 1.5 1.5 0 0 0 1.5 1.5c2.5000001 0 3.5-8.2e-4 3.5-2.626953v-7.373047h-1.5z" style="fill:#ffffff"/>
</svg>

<svg xmlns="http://www.w3.org/2000/svg" width="16" height="16" version="1">
 <rect style="fill:#19416f" width="16" height="16" x="-16" y="-16" rx=".8" ry=".8" transform="matrix(0,-1,-1,0,0,0)"/>
 <path style="fill:#ffffff" d="M 8.5,1 A 1.5,1.5 0 0 0 7,2.5 1.5,1.5 0 0 0 8.5,4 1.5,1.5 0 0 0 10,2.5 1.5,1.5 0 0 0 8.5,1 Z M 8.5,4 8,4 7,4 C 6.446,4 6,4.446 6,5 6,5.554 6.446,6 7,6 l 1,0 0,5.373047 c 0,0.376167 -0.00292,0.648832 -0.021484,0.871094 A 1.5,1.5 0 0 0 6.5,11 1.5,1.5 0 0 0 5,12.5 1.5,1.5 0 0 0 6.5,14 C 9.0000001,14 10,13.99918 10,11.373047 L 10,4 8.5,4 Z"/>
</svg>
